X: 94
T: Swallowfield Boys
T: Longways for as many as will.
%R: march, hornpipe
B: Daniel Wright "Wright's Compleat Collection of Celebrated Country Dances" 1740 p.47
S: http://library.efdss.org/cgi-bin/dancebooks.cgi
Z: 2014 John Chambers <jc:trillian.mit.edu>
M: C|
L: 1/8
K: D
% - - - - - - - - - - - - - - - - - - - - - - - - -
[|\
a3b a3g | f3g a3A | A3f (gf)(ed) | c4 A4 |\
=c4 B3c | A3G F3E | D3d e2(dc) | d4 D4 |]
=c4 B3c | A3G F3E | D3f (gf)(ed) | c4 A4 |\
a3b a2g2 | f3g a3A | A3g {f}e2dc | d4 D4 |]
% - - - - - - - - - - - - - - - - - - - - - - - - -
%%begintext align
%% The 1st Man go Back to Back, with the 2d
%% Wo. then cast off and lead within side of the
%% 3d Cu. and cast up into the 2d Cu Place :|
%% then lead up thro' the 2d Cu. and cast off
%% then Right and Left Hands round and
%% set to your Partner and cast off :|
%%endtext
% - - - - - - - - - - - - - - - - - - - - - - - - -
%%sep 2 4 300
